packages/ui/assets/svg/cro.svg

<svg class="icon-size" width="37" height="43" viewBox="0 0 37 43" fill="none" xmlns="http://www.w3.org/2000/svg">
<path class="fill" d="M18.5072 0L0 10.7536V32.2536L18.5072 43L37 32.2536V10.7536L18.5072 0ZM31.5209 29.0679L18.5072 36.6286L5.48626 29.0679V13.9321L18.5072 6.37144L31.5209 13.9321V29.0679Z" fill="white"/>
<path class="fill" d="M27 26.0036L18.5035 31L10 26.0036V16.0036L18.5035 11L27 16.0036L23.4633 18.0854L18.5035 15.1637L13.5437 18.0854V23.9146L18.5035 26.8363L23.4633 23.9146L27 26.0036Z" fill="white"/>
</svg>

<svg class="icon-size" width="37" height="43" viewBox="0 0 37 43" fill="none" xmlns="http://www.w3.org/2000/svg"><path class="fill" d="M18.507 0 0 10.754v21.5L18.507 43 37 32.254v-21.5L18.507 0Zm13.014 29.068-13.014 7.56-13.02-7.56V13.932l13.02-7.56 13.014 7.56v15.136Z" fill="#fff"/><path class="fill" d="M27 26.004 18.503 31 10 26.004v-10L18.503 11 27 16.004l-3.537 2.081-4.96-2.921-4.96 2.921v5.83l4.96 2.921 4.96-2.921L27 26.004Z" fill="#fff"/></svg>
